build/img/reasons/money.svg

<svg xmlns="http://www.w3.org/2000/svg" viewBox="0 0 512 512"><!--! Font Awesome Pro 6.1.1 by @fontawesome - https://fontawesome.com License - https://fontawesome.com/license (Commercial License) Copyright 2022 Fonticons, Inc.--><path d="M470.7 9.441c3 3.049 5.3 6.559 6.9 10.309 1.5 3.75 1.5 7.85 2.4 12.15V128c0 17.7-14.3 32-32 32s-32-14.3-32-32v-18.7L310.6 214.6c-11.8 11.9-30.7 12.6-43.4 1.7l-92.1-78.2-90.28 78.2c-13.41 11.5-33.62 9.9-45.12-3.5s-9.94-33.6 3.47-45.1l112.03-96c12-10.27 29.6-10.27 41.6 0l89.5 76.7L370.7 64H352c-17.7 0-32-14.33-32-32s14.3-32 32-32h95.1c9.7 0 17.7 3.554 23.5 9.305l.1.136zM0 304c0-26.5 21.49-48 48-48h416c26.5 0 48 21.5 48 48v160c0 26.5-21.5 48-48 48H48c-26.51 0-48-21.5-48-48V304zm48 160h48c0-26.5-21.49-48-48-48v48zm0-160v48c26.51 0 48-21.5 48-48H48zm416 112c-26.5 0-48 21.5-48 48h48v-48zm-48-112c0 26.5 21.5 48 48 48v-48h-48zm-160 16c-35.3 0-64 28.7-64 64s28.7 64 64 64 64-28.7 64-64-28.7-64-64-64z"/></svg>

<svg xmlns="http://www.w3.org/2000/svg" viewBox="0 0 512 512"><!--! Font Awesome Pro 6.1.1 by @fontawesome - https://fontawesome.com License - https://fontawesome.com/license (Commercial License) Copyright 2022 Fonticons, Inc. --><path d="M470.7 9.441C473.7 12.49 476 16 477.6 19.75C479.1 23.5 479.1 27.6 480 31.9V32V128C480 145.7 465.7 160 448 160C430.3 160 416 145.7 416 128V109.3L310.6 214.6C298.8 226.5 279.9 227.2 267.2 216.3L175.1 138.1L84.82 216.3C71.41 227.8 51.2 226.2 39.7 212.8C28.2 199.4 29.76 179.2 43.17 167.7L155.2 71.7C167.2 61.43 184.8 61.43 196.8 71.7L286.3 148.4L370.7 64H352C334.3 64 320 49.67 320 32C320 14.33 334.3 0 352 0H447.1C456.8 0 464.8 3.554 470.6 9.305L470.7 9.441zM0 304C0 277.5 21.49 256 48 256H464C490.5 256 512 277.5 512 304V464C512 490.5 490.5 512 464 512H48C21.49 512 0 490.5 0 464V304zM48 464H96C96 437.5 74.51 416 48 416V464zM48 304V352C74.51 352 96 330.5 96 304H48zM464 416C437.5 416 416 437.5 416 464H464V416zM416 304C416 330.5 437.5 352 464 352V304H416zM256 320C220.7 320 192 348.7 192 384C192 419.3 220.7 448 256 448C291.3 448 320 419.3 320 384C320 348.7 291.3 320 256 320z"/></svg>
